X: 88
T:Leddy From Cavan
M:2/2
L:1/8
C:Ed Reavy
S:The Collected Compositions of Ed Reavy
R:Reel
N:John Leddy and Ed worked in the plumbing business
N:together and became close friends over the years. John was proud of
N:Ed's accomplishments, particularly because both were Cavanmen. His son
N:
N:John Jr. was a promising young fiddler who studied with Ed in the
N:fortie
N:
N:John Sr. played the fiddle a bit himself and had a great love of
N:traditional music.
Z:Joseph Reavy
K:D
DE|:=FEDF EDCE|Dddc defd|[E2c2] cB cAFE|=FEDF EDCE|DE=FE DA,G,A,|FG
AF G2 FG|Addc defd|1=cAGE D2 EG:|2 =cAGE DEFA||d2 fd Adfd|c2 ec Gcec|
d2 [df]d Adfa |gfge fddc|defd Adfd|cdef g2 fg|(3agf (3gfe
A=cBd|1 ^cAGE DEFA:|2 ^cAGE D2 EG:||
<end>
<start>
